TCanvas/fit1_4.svg

<svg xmlns="http://www.w3.org/2000/svg" viewBox="0 0 1200 800" preserveAspectRatio="none" width="1200" height="800">
 <path d="M0,0H1200V800H0Z" style="fill: white;"></path>
 <g>
  <g transform="translate(120,80)">
   <path d="M0,0H960V640H0Z" style="fill: white; stroke: black; stroke-width: 1;"></path>
   <svg x="0" y="0" overflow="hidden" width="960" height="640" viewBox="0 0 960 640">
    <g>
     <path d="M0,629h10v11h9v-11h10v-7h9v4h10v-8h10v-10h19v28h9v-18h10v-14h10v7h9v-10h10v-4h9v-4h10v-14h10v-25h9v4h10v-4h9v18h10v-40h10v-3h9v-14h10v-40h9v22h10v-43h10v14h9v-18h10v-36h9v-7h10v-57h10v-8h9v-18h10v11h9v-50h10v-11h10v-25h9v47h10v-25h9v-29h10v-36h10v29h9v-50h10v-83h9v36h10v-32h10v68h9v-29h10v4h9v-61h10v100h10v-39h9v-119h10v104h9v15h10v3h10v54h9v-107h10v136h9v21h10v-61h10v69h9v-61h10v125h9v-64h20v104h9v-69h10v40h9v36h10v46h10v15h9v-8h10v11h9v43h10v-21h10v10h9v40h10v21h9v-32h10v36h10v29h19v14h9v-14h10v25h29v14h9v-3h10v14h29v7h9v-4h10v4h10v14h19v-3h9v-15h10" style="stroke-linejoin: miter; stroke: #00009a; stroke-width: 1; fill: none;"></path>
    </g>
    <g>
     <path d="M5,635l10,-1l9,-2l10,-1l9,-2l10,-2l10,-2l9,-3l10,-3l9,-3l10,-4l10,-4l9,-5l10,-5l9,-7l10,-6l10,-8l9,-8l10,-9l9,-10l10,-10l10,-12l9,-12l10,-13l9,-14l10,-15l10,-15l9,-17l10,-17l9,-17l10,-18l10,-19l9,-18l10,-19l9,-19l10,-19l10,-19l9,-18l10,-17l9,-17l10,-16l10,-15l9,-14l10,-13l9,-11l10,-9l10,-8l9,-6l10,-4l9,-3h10l10,1l9,3l10,5l9,7l10,9l10,10l9,12l10,13l9,15l10,15l10,16l9,18l10,18l9,18l10,19l10,19l9,19l10,18l9,19l10,18l10,18l9,17l10,17l9,16l10,15l10,15l9,13l10,13l9,12l10,11l10,10l9,9l10,9l9,8l10,7l10,6l9,6l10,5l9,5l10,4l10,4l9,3l10,3l9,2l10,2l10,2l9,2l10,1l9,1" style="fill: none; stroke: red; stroke-width: 2;"></path>
    </g>
   </svg>
   <g>
    <g transform="translate(0,640)">
     <path d="M0,0h960M0,-24V0M32,-12V0M64,-12V0M96,-12V0M128,-12V0M160,-24V0M192,-12V0M224,-12V0M256,-12V0M288,-12V0M320,-24V0M352,-12V0M384,-12V0M416,-12V0M448,-12V0M480,-24V0M512,-12V0M544,-12V0M576,-12V0M608,-12V0M640,-24V0M672,-12V0M704,-12V0M736,-12V0M768,-12V0M800,-24V0M832,-12V0M864,-12V0M896,-12V0M928,-12V0M960,-24V0" style="stroke: black; stroke-width: 1;"></path>
     <g font-family="Arial" font-size="28" space="preserve" fill="black" text-anchor="middle">
      <text dy=".8em" transform="translate(0,1)">
       -3
      </text>
      <text dy=".8em" transform="translate(160,1)">
       -2
      </text>
      <text dy=".8em" transform="translate(320,1)">
       -1
      </text>
      <text dy=".8em" transform="translate(480,1)">
       0
      </text>
      <text dy=".8em" transform="translate(640,1)">
       1
      </text>
      <text dy=".8em" transform="translate(800,1)">
       2
      </text>
      <text dy=".8em" transform="translate(960,1)">
       3
      </text>
     </g>
    </g>
    <g>
     <path d="M0,0v640M36,640H0M18,622H0M18,604H0M18,586H0M36,568H0M18,550H0M18,532H0M18,515H0M36,497H0M18,479H0M18,461H0M18,443H0M36,425H0M18,407H0M18,389H0M18,371H0M36,353H0M18,335H0M18,317H0M18,299H0M36,281H0M18,264H0M18,246H0M18,228H0M36,210H0M18,192H0M18,174H0M18,156H0M36,138H0M18,120H0M18,102H0M18,84H0M36,66H0M18,48H0M18,30H0M18,13H0" style="stroke: black; stroke-width: 1;"></path>
     <g font-family="Arial" font-size="28" space="preserve" fill="black" text-anchor="end">
      <text dy=".4em" transform="translate(-4,640)">
       0
      </text>
      <text dy=".4em" transform="translate(-4,568)">
       20
      </text>
      <text dy=".4em" transform="translate(-4,497)">
       40
      </text>
      <text dy=".4em" transform="translate(-4,425)">
       60
      </text>
      <text dy=".4em" transform="translate(-4,353)">
       80
      </text>
      <text dy=".4em" transform="translate(-4,281)">
       100
      </text>
      <text dy=".4em" transform="translate(-4,210)">
       120
      </text>
      <text dy=".4em" transform="translate(-4,138)">
       140
      </text>
      <text dy=".4em" transform="translate(-4,66)">
       160
      </text>
     </g>
    </g>
   </g>
  </g>
  <g transform="translate(936,52)" font-family="Arial" font-size="23" space="preserve" fill="black">
   <path d="M0,0H240V128H0Z" style="fill: white; stroke: black; stroke-width: 1;"></path>
   <text text-anchor="middle" dy=".4em" transform="translate(120,16)">
    h
   </text>
   <text text-anchor="start" dy=".4em" transform="translate(12,48)">
    Entries
   </text>
   <text text-anchor="end" dy=".4em" transform="translate(228,48)">
    6000
   </text>
   <text text-anchor="start" dy=".4em" transform="translate(12,80)">
    Mean
   </text>
   <text text-anchor="end" dy=".4em" transform="translate(228,80)">
    0.009532
   </text>
   <text text-anchor="start" dy=".4em" transform="translate(12,112)">
    Std Dev
   </text>
   <text text-anchor="end" dy=".4em" transform="translate(228,112)">
    0.9967
   </text>
   <path d="M0,32h240" style="stroke: black; stroke-width: 1;"></path>
  </g>
  <g transform="translate(455,4)" font-family="Arial" font-size="39" space="preserve">
   <text fill="black" text-anchor="middle" dy=".4em" transform="translate(145,25)">
    My histogram
   </text>
  </g>
 </g>
</svg>

<svg xmlns="http://www.w3.org/2000/svg" viewBox="0 0 1200 800" preserveAspectRatio="none" width="1200" height="800">
 <path d="M0,0H1200V800H0Z" style="fill: white;"></path>
 <g>
  <g transform="translate(120,80)">
   <path d="M0,0H960V640H0Z" style="fill: white; stroke: black; stroke-width: 1;"></path>
   <svg x="0" y="0" overflow="hidden" width="960" height="640" viewBox="0 0 960 640">
    <g>
     <path d="M0,629h10v11h9v-11h10v-7h9v4h10v-8h10v-10h19v28h9v-18h10v-14h10v7h9v-10h10v-4h9v-4h10v-14h10v-25h9v4h10v-4h9v18h10v-40h10v-3h9v-14h10v-40h9v22h10v-43h10v14h9v-18h10v-36h9v-7h10v-57h10v-8h9v-18h10v11h9v-50h10v-11h10v-25h9v47h10v-25h9v-29h10v-36h10v29h9v-50h10v-83h9v36h10v-32h10v68h9v-29h10v4h9v-61h10v100h10v-39h9v-119h10v104h9v15h10v3h10v54h9v-107h10v136h9v21h10v-61h10v69h9v-61h10v125h9v-64h20v104h9v-69h10v40h9v36h10v46h10v15h9v-8h10v11h9v43h10v-21h10v10h9v40h10v21h9v-32h10v36h10v29h19v14h9v-14h10v25h29v14h9v-3h10v14h29v7h9v-4h10v4h10v14h19v-3h9v-15h10" style="stroke-linejoin: miter; stroke: #00009a; stroke-width: 1; fill: none;"></path>
    </g>
    <g>
     <path d="M5,635L15,634L24,632L34,631L43,629L53,627L63,625L72,622L82,619L91,616L101,612L111,608L120,603L130,598L139,591L149,585L159,577L168,569L178,560L187,550L197,540L207,528L216,516L226,503L235,489L245,474L255,459L264,442L274,425L283,408L293,390L303,371L312,353L322,334L331,315L341,296L351,277L360,259L370,242L379,225L389,209L399,194L408,180L418,167L427,156L437,147L447,139L456,133L466,129L475,126L485,126L495,127L504,130L514,135L523,142L533,151L543,161L552,173L562,186L571,201L581,216L591,232L600,250L610,268L619,286L629,305L639,324L648,343L658,361L667,380L677,398L687,416L696,433L706,450L715,466L725,481L735,496L744,509L754,522L763,534L773,545L783,555L792,564L802,573L811,581L821,588L831,594L840,600L850,605L859,610L869,614L879,618L888,621L898,624L907,626L917,628L927,630L936,632L946,633L955,634" style="fill: none; stroke: red; stroke-width: 2;"></path>
    </g>
   </svg>
   <g>
    <g transform="translate(0,640)">
     <path d="M0,0h960M0,-24V0M32,-12V0M64,-12V0M96,-12V0M128,-12V0M160,-24V0M192,-12V0M224,-12V0M256,-12V0M288,-12V0M320,-24V0M352,-12V0M384,-12V0M416,-12V0M448,-12V0M480,-24V0M512,-12V0M544,-12V0M576,-12V0M608,-12V0M640,-24V0M672,-12V0M704,-12V0M736,-12V0M768,-12V0M800,-24V0M832,-12V0M864,-12V0M896,-12V0M928,-12V0M960,-24V0" style="stroke: black; stroke-width: 1;"></path>
     <g font-family="Arial" font-size="28" space="preserve" fill="black" text-anchor="middle">
      <text dy=".8em" transform="translate(0,1)">
       -3
      </text>
      <text dy=".8em" transform="translate(160,1)">
       -2
      </text>
      <text dy=".8em" transform="translate(320,1)">
       -1
      </text>
      <text dy=".8em" transform="translate(480,1)">
       0
      </text>
      <text dy=".8em" transform="translate(640,1)">
       1
      </text>
      <text dy=".8em" transform="translate(800,1)">
       2
      </text>
      <text dy=".8em" transform="translate(960,1)">
       3
      </text>
     </g>
    </g>
    <g>
     <path d="M0,0v640M36,640H0M18,622H0M18,604H0M18,586H0M36,568H0M18,550H0M18,532H0M18,515H0M36,497H0M18,479H0M18,461H0M18,443H0M36,425H0M18,407H0M18,389H0M18,371H0M36,353H0M18,335H0M18,317H0M18,299H0M36,281H0M18,264H0M18,246H0M18,228H0M36,210H0M18,192H0M18,174H0M18,156H0M36,138H0M18,120H0M18,102H0M18,84H0M36,66H0M18,48H0M18,30H0M18,13H0" style="stroke: black; stroke-width: 1;"></path>
     <g font-family="Arial" font-size="28" space="preserve" fill="black" text-anchor="end">
      <text dy=".4em" transform="translate(-4,640)">
       0
      </text>
      <text dy=".4em" transform="translate(-4,568)">
       20
      </text>
      <text dy=".4em" transform="translate(-4,497)">
       40
      </text>
      <text dy=".4em" transform="translate(-4,425)">
       60
      </text>
      <text dy=".4em" transform="translate(-4,353)">
       80
      </text>
      <text dy=".4em" transform="translate(-4,281)">
       100
      </text>
      <text dy=".4em" transform="translate(-4,210)">
       120
      </text>
      <text dy=".4em" transform="translate(-4,138)">
       140
      </text>
      <text dy=".4em" transform="translate(-4,66)">
       160
      </text>
     </g>
    </g>
   </g>
  </g>
  <g transform="translate(936,52)" font-family="Arial" font-size="23" space="preserve" fill="black">
   <path d="M0,0H240V128H0Z" style="fill: white; stroke: black; stroke-width: 1;"></path>
   <text text-anchor="middle" dy=".4em" transform="translate(120,16)">
    h
   </text>
   <text text-anchor="start" dy=".4em" transform="translate(12,48)">
    Entries
   </text>
   <text text-anchor="end" dy=".4em" transform="translate(228,48)">
    6000
   </text>
   <text text-anchor="start" dy=".4em" transform="translate(12,80)">
    Mean
   </text>
   <text text-anchor="end" dy=".4em" transform="translate(228,80)">
    0.009532
   </text>
   <text text-anchor="start" dy=".4em" transform="translate(12,112)">
    Std Dev
   </text>
   <text text-anchor="end" dy=".4em" transform="translate(228,112)">
    0.9967
   </text>
   <path d="M0,32h240" style="stroke: black; stroke-width: 1;"></path>
  </g>
  <g transform="translate(455,4)" font-family="Arial" font-size="39" space="preserve">
   <text fill="black" text-anchor="middle" dy=".4em" transform="translate(145,25)">
    My histogram
   </text>
  </g>
 </g>
</svg>
